X:1
T:Bourrée in E Minor
T:J. S. Bach
T:BWV 996
T:Public Domain - www.MutopiaProject.org Scritto con MuseScore, un software libero e gratuito: http://musescore.org/it 
Z:Public Domain - www.MutopiaProject.org
Z:Scritto con MuseScore, un software libero e gratuito: http://musescore.org/it
%%score { 1 | ( 2 3 4 ) }
L:1/8
Q:1/4=132
M:4/4
K:G
V:1 treble nm="Clavicembalo"
V:2 bass 
V:3 bass 
V:4 bass 
V:1
"^Allegro" EF | G2 FE ^D2 EF | B,2 ^C^D E2 =D=C | B,2 x6 | x6 EF | G2 FE ^D2 EF | %6
 B,2 ^C^D E2 =D=C | B,2 x6 | x6 :: x2 | x6 BE | E2 B,D C2 x2 | x8 | x8 | x2 GD E2 B,D | %15
 C2 AE F2 ^CE | D2 ^CB, P^A,3 B, | B,6 BF | ^G2 FE A2 E=G | F2 ED G2 D=F | E2 AE F2 ^CE | %21
 ^D2 B,4 EB, | C2 DD x4 | x8 | x8 | x6 :| %26
V:2
 x2 | x8 | x8 | z2 A,G, F,2 G,A, | B,A,G,F, E,2 x2 | x8 | x8 | x2 A,G, F,3 G, | [B,,D,G,]6 :: %9
 B,G, | D2 A,C B,2 x2 | x6 B,A, | ^G,2 A,B, C2 B,A, | A,6 DA, | B,2 x6 | x8 | B,,2 E,2 F,2 F,,2 | %17
 B,,^A,,B,,^C, ^D,2 B,,2 | E,2 D,2 ^C,2 A,,2 | D,2 C,2 B,,2 G,,2 | C,2 B,,2 A,,2 F,,2 | %21
 B,,3 C, B,,A,, ^G,,2 | x2 x2 B,2 CG, | A,2 B,F, G,2 F,E, | ^D,2 E,F, G,2 F,E, | E,6 :| %26
V:3
 G,,F,, | F,,2 A,,2 B,,2 A,,2 | G,,2 F,,2 E,,2 F,,2 | G,,2 A,,2 B,,2 A,,2 | %4
 G,,2 B,,2 E,,F,,G,,F,, | E,,2 A,,2 B,,2 A,,2 | G,,2 F,,2 E,,2 F,,2 | G,,2 C,2 D,2 D,,2 | G,,6 :: %9
 G,,2 | F,,2 D,,2 G,,2 B,,2 | C,2 ^G,,2 A,,2 D,2 | E,2 A,,2 E,2 E,,2 | A,,B,,A,,G,, F,,2 D,,2 | %14
 G,,2 B,,2 C,2 ^G,,2 | A,,2 ^C,2 D,2 ^A,,2 | x8 | x8 | x8 | x8 | x8 | x8 | A,,E, F,2 G,,^D, E,2 | %23
 F,,^C, ^D,2 E,,2 A,,2 | B,,2 A,,2 B,,4 | E,,6 :| %26
V:4
 x2 | x8 | x8 | x8 | x8 | x8 | x8 | x8 | x6 :: x2 | x8 | x8 | x8 | x8 | x8 | x8 | x8 | x8 | x8 | %19
 x8 | x8 | x8 | x3 A, x4 | x8 | x8 | x6 :| %26

